packages/foundations/icons/Education/OpenBook.svg

<svg width="24" height="24" viewBox="0 0 24 24" fill="none" xmlns="http://www.w3.org/2000/svg">
<path fill-rule="evenodd" clip-rule="evenodd" d="M14.25 7.5C14.25 7.08579 14.5858 6.75 15 6.75H20C20.4142 6.75 20.75 7.08579 20.75 7.5C20.75 7.91421 20.4142 8.25 20 8.25H15C14.5858 8.25 14.25 7.91421 14.25 7.5Z" fill="#3D474D"/>
<path fill-rule="evenodd" clip-rule="evenodd" d="M3.25 7.5C3.25 7.08579 3.58579 6.75 4 6.75H9C9.41421 6.75 9.75 7.08579 9.75 7.5C9.75 7.91421 9.41421 8.25 9 8.25H4C3.58579 8.25 3.25 7.91421 3.25 7.5Z" fill="#3D474D"/>
<path fill-rule="evenodd" clip-rule="evenodd" d="M14.25 10.5C14.25 10.0858 14.5858 9.75 15 9.75H20C20.4142 9.75 20.75 10.0858 20.75 10.5C20.75 10.9142 20.4142 11.25 20 11.25H15C14.5858 11.25 14.25 10.9142 14.25 10.5Z" fill="#3D474D"/>
<path fill-rule="evenodd" clip-rule="evenodd" d="M3.25 10.5C3.25 10.0858 3.58579 9.75 4 9.75H9C9.41421 9.75 9.75 10.0858 9.75 10.5C9.75 10.9142 9.41421 11.25 9 11.25H4C3.58579 11.25 3.25 10.9142 3.25 10.5Z" fill="#3D474D"/>
<path fill-rule="evenodd" clip-rule="evenodd" d="M14.25 13.5C14.25 13.0858 14.5858 12.75 15 12.75H20C20.4142 12.75 20.75 13.0858 20.75 13.5C20.75 13.9142 20.4142 14.25 20 14.25H15C14.5858 14.25 14.25 13.9142 14.25 13.5Z" fill="#3D474D"/>
<path fill-rule="evenodd" clip-rule="evenodd" d="M3.25 13.5C3.25 13.0858 3.58579 12.75 4 12.75H9C9.41421 12.75 9.75 13.0858 9.75 13.5C9.75 13.9142 9.41421 14.25 9 14.25H4C3.58579 14.25 3.25 13.9142 3.25 13.5Z" fill="#3D474D"/>
<path fill-rule="evenodd" clip-rule="evenodd" d="M3.25 16.5C3.25 16.0858 3.58579 15.75 4 15.75H9C9.41421 15.75 9.75 16.0858 9.75 16.5C9.75 16.9142 9.41421 17.25 9 17.25H4C3.58579 17.25 3.25 16.9142 3.25 16.5Z" fill="#3D474D"/>
<path fill-rule="evenodd" clip-rule="evenodd" d="M2.47264 4.64462C2.56389 4.59871 2.63531 4.57075 2.76019 4.54806C2.90768 4.52126 3.1432 4.5 3.56389 4.5H10C10.6106 4.5 11 4.95131 11 5.38173V18.6183C11 19.0487 10.6106 19.5 10 19.5H3.56389C3.1432 19.5 2.90768 19.4787 2.76018 19.4519C2.63531 19.4293 2.56389 19.4013 2.47264 19.3554C2.31657 19.2768 2.2098 19.1721 2.1365 19.0432C2.09159 18.9642 2.06806 18.9098 2.04778 18.811C2.02244 18.6876 2 18.4786 2 18.0877V5.91227C2 5.5214 2.02244 5.31244 2.04778 5.18896C2.06806 5.09017 2.09159 5.03583 2.1365 4.95681C2.2098 4.82786 2.31657 4.72316 2.47264 4.64462ZM13 5.38173V5H11V5.38173C11 5.93401 11.4477 6.38173 12 6.38173C12.5523 6.38173 13 5.93401 13 5.38173ZM13 5.38173C13 4.95131 13.3894 4.5 14 4.5H20.4361C20.8568 4.5 21.0923 4.52126 21.2398 4.54806C21.3647 4.57075 21.4361 4.59871 21.5274 4.64462C21.6834 4.72316 21.7902 4.82786 21.8635 4.95681C21.9084 5.03583 21.9319 5.09017 21.9522 5.18896C21.9776 5.31244 22 5.5214 22 5.91227V18.0877C22 18.4786 21.9776 18.6876 21.9522 18.811C21.9319 18.9098 21.9084 18.9642 21.8635 19.0432C21.7902 19.1721 21.6834 19.2768 21.5274 19.3554C21.4361 19.4013 21.3647 19.4293 21.2398 19.4519C21.0923 19.4787 20.8568 19.5 20.4361 19.5H14C13.3894 19.5 13 19.0487 13 18.6183V5.38173ZM10 2.5C10.7521 2.5 11.4606 2.77309 12 3.23394C12.5394 2.77309 13.2479 2.5 14 2.5H20.4361C21.4024 2.5 21.903 2.59472 22.4263 2.85805C22.9221 3.10751 23.3269 3.48413 23.6022 3.96848C23.8963 4.48576 24 4.98558 24 5.91227V18.0877C24 19.0144 23.8963 19.5142 23.6022 20.0315C23.3269 20.5159 22.9221 20.8925 22.4263 21.142C21.903 21.4053 21.4024 21.5 20.4361 21.5H14C13.2479 21.5 12.5394 21.2269 12 20.7661C11.4606 21.2269 10.7521 21.5 10 21.5H3.56389C2.59758 21.5 2.097 21.4053 1.57367 21.142C1.07789 20.8925 0.67308 20.5159 0.397765 20.0315C0.103735 19.5142 0 19.0144 0 18.0877V5.91227C0 4.98559 0.103735 4.48576 0.397765 3.96848C0.67308 3.48413 1.07789 3.10751 1.57367 2.85805C2.097 2.59472 2.59758 2.5 3.56389 2.5H10Z" fill="#3D474D"/>
<path d="M12 6.38173C12.5523 6.38173 13 5.93401 13 5.38173V5H11V5.38173C11 5.93401 11.4477 6.38173 12 6.38173Z" fill="#3D474D"/>
</svg>

<svg xmlns="http://www.w3.org/2000/svg" fill="none" viewBox="0 0 24 24" width="100%" height="100%">
  <path fill="#3D474D" fill-rule="evenodd" d="M14.25 7.5a.75.75 0 0 1 .75-.75h5a.75.75 0 0 1 0 1.5h-5a.75.75 0 0 1-.75-.75Zm-11 0A.75.75 0 0 1 4 6.75h5a.75.75 0 0 1 0 1.5H4a.75.75 0 0 1-.75-.75Zm11 3a.75.75 0 0 1 .75-.75h5a.75.75 0 0 1 0 1.5h-5a.75.75 0 0 1-.75-.75Zm-11 0A.75.75 0 0 1 4 9.75h5a.75.75 0 0 1 0 1.5H4a.75.75 0 0 1-.75-.75Zm11 3a.75.75 0 0 1 .75-.75h5a.75.75 0 0 1 0 1.5h-5a.75.75 0 0 1-.75-.75Zm-11 0a.75.75 0 0 1 .75-.75h5a.75.75 0 0 1 0 1.5H4a.75.75 0 0 1-.75-.75Zm0 3a.75.75 0 0 1 .75-.75h5a.75.75 0 0 1 0 1.5H4a.75.75 0 0 1-.75-.75Z" clip-rule="evenodd"/>
  <path fill="#3D474D" fill-rule="evenodd" d="M2.473 4.645a.94.94 0 0 1 .287-.097c.148-.027.383-.048.804-.048H10c.61 0 1 .451 1 .882v13.236c0 .43-.39.882-1 .882H3.564c-.42 0-.656-.021-.804-.048a.938.938 0 0 1-.287-.097.769.769 0 0 1-.425-.544c-.026-.123-.048-.332-.048-.723V5.912c0-.39.022-.6.048-.723a.768.768 0 0 1 .425-.544ZM13 5.382V5h-2v.382a1 1 0 1 0 2 0Zm0 0c0-.43.39-.882 1-.882h6.436c.42 0 .656.021.804.048a.94.94 0 0 1 .287.097.769.769 0 0 1 .425.544c.026.123.048.332.048.723v12.176c0 .39-.022.6-.048.723a.77.77 0 0 1-.425.544.939.939 0 0 1-.287.097c-.148.027-.383.048-.804.048H14c-.61 0-1-.451-1-.882V5.382ZM10 2.5c.752 0 1.46.273 2 .734a3.085 3.085 0 0 1 2-.734h6.436c.966 0 1.467.095 1.99.358.496.25.9.626 1.176 1.11.294.518.398 1.018.398 1.944v12.176c0 .926-.104 1.426-.398 1.944-.275.484-.68.86-1.176 1.11-.523.263-1.024.358-1.99.358H14c-.752 0-1.46-.273-2-.734a3.09 3.09 0 0 1-2 .734H3.564c-.966 0-1.467-.095-1.99-.358-.496-.25-.9-.626-1.176-1.11C.104 19.514 0 19.014 0 18.088V5.912c0-.926.104-1.426.398-1.944.275-.484.68-.86 1.176-1.11.523-.263 1.024-.358 1.99-.358H10Z" clip-rule="evenodd"/>
  <path fill="#3D474D" d="M12 6.382a1 1 0 0 0 1-1V5h-2v.382a1 1 0 0 0 1 1Z"/>
</svg>
